dist/svgs/comment-line.svg

<svg xmlns="http://www.w3.org/2000/svg" viewBox="0 0 512 512"><path d="M101 511v-95H78q-29 0-50.5-21T6 344V72q0-30 21.5-51.5T78-1h354q29 0 50.5 21.5T504 72v272q0 30-21.5 51T432 416H313zM78 54q-7 0-11.5 5T62 72v272q0 7 4.5 12t11.5 5h78v65l146-65h130q7 0 11.5-5t4.5-12V72q0-8-4.5-13T432 54H78z"/></svg>

<?xml version="1.0" encoding="UTF-8" standalone="no"?><svg   xmlns:svg="http://www.w3.org/2000/svg"   xmlns="http://www.w3.org/2000/svg"   version="1.1"   width="512"   height="512"   viewBox="0 0 512 512">  <path     d="M101 511V416H78Q49 416 27.5 395T6 344V72Q6 42 27.5 20.5T78 -1H432Q461 -1 482.5 20.5T504 72V344Q504 374 482.5 395T432 416H313zM78 54Q71 54 66.5 59T62 72V344Q62 351 66.5 356T78 361H156V426L302 361H432Q439 361 443.5 356T448 344V72Q448 64 443.5 59T432 54H78z"     id="comment-line" /></svg>
